packages/icons/src/components/Icon/assets/default-outline/book-open-outline.svg

<svg width="20" height="20" viewBox="0 0 20 20" fill="none" xmlns="http://www.w3.org/2000/svg">
<path fill-rule="evenodd" clip-rule="evenodd" d="M3.45455 4.26559V14.2848C4.00193 14.1665 4.56976 14.1043 5.15152 14.1043C6.65852 14.1043 8.06902 14.5215 9.27273 15.2462V5.50367C8.14724 4.59029 6.71397 4.04366 5.15152 4.04366C4.56383 4.04366 3.99512 4.12093 3.45455 4.26559ZM10.7273 5.50367V15.2462C11.931 14.5215 13.3415 14.1043 14.8485 14.1043C15.4302 14.1043 15.9981 14.1665 16.5455 14.2848V4.26559C16.0049 4.12093 15.4362 4.04366 14.8485 4.04366C13.286 4.04366 11.8528 4.59029 10.7273 5.50367ZM10 4.22529C8.65493 3.19913 6.97378 2.58911 5.15152 2.58911C4.21779 2.58911 3.31992 2.74938 2.48491 3.04451C2.1943 3.14723 2 3.42199 2 3.73022V15.2454C2 15.4815 2.1146 15.7029 2.30735 15.8392C2.50011 15.9755 2.74704 16.0097 2.96963 15.9311C3.65113 15.6902 4.38519 15.5588 5.15152 15.5588C6.82839 15.5588 8.35647 16.1884 9.51497 17.2253C9.7911 17.4725 10.2089 17.4725 10.485 17.2253C11.6435 16.1884 13.1716 15.5588 14.8485 15.5588C15.6148 15.5588 16.3489 15.6902 17.0304 15.9311C17.253 16.0097 17.4999 15.9755 17.6926 15.8392C17.8854 15.7029 18 15.4815 18 15.2454V3.73022C18 3.42199 17.8057 3.14723 17.5151 3.04451C16.6801 2.74938 15.7822 2.58911 14.8485 2.58911C13.0262 2.58911 11.3451 3.19913 10 4.22529Z" fill="#727683"/>
</svg>

<svg xmlns="http://www.w3.org/2000/svg" width="20" height="20" fill="none" viewBox="0 0 20 20">
    <path d="M3.455 4.266v10.019a8.03 8.03 0 0 1 5.818.961V5.504a6.5 6.5 0 0 0-4.121-1.46c-.588 0-1.157.077-1.697.222m7.272 1.238v9.742a8.03 8.03 0 0 1 5.818-.961V4.265a6.6 6.6 0 0 0-1.697-.221 6.5 6.5 0 0 0-4.12 1.46M10 4.225A7.97 7.97 0 0 0 5.152 2.59c-.934 0-1.832.16-2.667.456A.73.73 0 0 0 2 3.73v11.515a.727.727 0 0 0 .97.686 6.5 6.5 0 0 1 2.182-.372c1.676 0 3.204.63 4.363 1.666a.727.727 0 0 0 .97 0 6.52 6.52 0 0 1 4.364-1.666c.766 0 1.5.131 2.181.372a.727.727 0 0 0 .97-.686V3.73a.73.73 0 0 0-.485-.685 8 8 0 0 0-2.667-.456c-1.822 0-3.503.61-4.848 1.636" clip-rule="evenodd"/>
</svg>
